dist/img/icon/icon-telegram.svg

<svg width="74" height="62" viewBox="0 0 74 62" fill="none" xmlns="http://www.w3.org/2000/svg">
<path d="M19.4429 36.3452L2.63774 31.1215C-0.995084 30.0151 -1.01527 27.5206 3.45177 25.7301L68.9301 0.516798C72.7311 -1.02551 74.8839 0.925842 73.6528 5.81428L62.5054 58.2527C61.725 61.9877 59.4713 62.8796 56.3431 61.1562L39.1813 48.4959L31.1824 56.194C30.3616 56.9853 29.6956 57.6626 28.4308 57.8302C27.1728 58.0046 26.1368 57.6291 25.3766 55.5503L19.5237 36.2983L19.4429 36.3519V36.3452Z" fill="#3C3C3C"/>
</svg>

<svg width="74" height="62" fill="none" xmlns="http://www.w3.org/2000/svg"><path d="M19.443 36.345L2.638 31.122c-3.633-1.107-3.653-3.601.814-5.392L68.93.517c3.801-1.543 5.954.409 4.723 5.297L62.505 58.253c-.78 3.735-3.034 4.627-6.162 2.903l-17.162-12.66-7.999 7.698c-.82.791-1.486 1.469-2.751 1.636-1.258.175-2.294-.2-3.054-2.28l-5.853-19.252-.081.054v-.007z" fill="#3C3C3C"/></svg>
